dist/assets/images/news/erga.svg

<svg width="470" height="328" viewBox="0 0 470 328" fill="none" xmlns="http://www.w3.org/2000/svg">
<path fill-rule="evenodd" clip-rule="evenodd" d="M41.7127 0.917969H66.576H295.277C384.25 0.917969 458.018 68.067 469.114 154.372H375.004C365.552 122.445 335.757 98.9638 300.825 98.9638H44.384H20.9591L0 0.917969H41.7127Z" fill="#F6F6F6"/>
<path fill-rule="evenodd" clip-rule="evenodd" d="M41.7127 328H66.576H295.277C384.25 328 458.018 260.645 469.114 174.546H375.004C365.552 206.473 335.757 229.954 300.825 229.954H44.384H20.9591L0 328H41.7127Z" fill="#F6F6F6"/>
</svg>

<svg width="470" height="328" fill="none" xmlns="http://www.w3.org/2000/svg"><path fill-rule="evenodd" clip-rule="evenodd" d="M41.713.918h253.564c88.973 0 162.741 67.149 173.837 153.454h-94.11c-9.452-31.927-39.247-55.408-74.179-55.408H20.959L0 .918h41.713zm0 327.082h253.564c88.973 0 162.741-67.355 173.837-153.454h-94.11c-9.452 31.927-39.247 55.408-74.179 55.408H20.959L0 328h41.713z" fill="#F6F6F6"/></svg>
